X:18133
T:Valse
M:3/4
L:1/4
S:St. Chartier 1997, via Eurojam
R:Waltz
Z:Steve Mansfield
K:Dm
A2A|AGF|AGF|E3|B2B|BAG|dcB|A3|A2A|AGF|AGF|E3|B/2A/2 G/2B/2 A/2G/2|A/2G/2
 F/2A/2 G/2F/2|F2E|1D3:|2D2A|:
K:D L:1/16 AF AF AF|BF BF BF|AF AF AF|BF BF BF|AF BF cF|dF cF BF|dF cF B
F|G6|BG BG BG|cG cG cG|BG BG BG|cG cG cG|BG cG dG|eG dG cG|eG dG cG|1A6:
|2d6||



Xuacu Amieva 61
M:3/8
L:1/8
Q:3/8=67
K:Em
G>F
|: G E2-|EG>F|G E2-|EEG|c2 e-|ed>c|c2 B-|BBc|
|d A2-|AAB|c G2-|GGc|B2 A|G2 =F|[1 E3-|EG>F :|[2 E3-|E3|
|: G>GG|Gc>d|e3-|e3|e>ee|e=f>e|=f d2-|d3|
|d>dd|de=f|=f2 e-|edc|B2 A|G2 =F|[1 E3-|E3 :|[2 E3|



